X: 21549
T: Kiley's
R: reel
M: 4/4
K: Gmajor
GBdf gfed|cBAG FA D2|A2 FA DF A2|BAGB AGFA|
GBdf gfed|cBAG FA D2|A2 FA DF A2|AGFA G2:|
d2 Bd d2 Bd|e2 ce e2 ce|d2 Bd d2 Bd|A2 FA A2 FA|
d2 Bd d2 Bd|e2 ce e2 ce|GBdf gfge|dcBA G2:|

